X:1
T:The End Of A Love Affair
T:The End Of A Love Affair
C:Edward C. Redding
Z:All Rights Reserved
L:1/8
M:4/4
K:F
V:1 treble nm="Voice" snm="Vo."
%%MIDI program 0
V:1
 z4 z2 FG |:"Gm7" A3 A"C7" (3A2 G2 F2 |"Fmaj7" E4 z2 DC |"Fm7" G3 G"Bb7" (3G2 F2 _E2 | %4
w: So I|walk a lit- tle too|fast, and I|drive a lit- tle too|
w: |talk a lit- tle too|much, and I|laugh a lit- tle too|
"Ebmaj7" D4 z2 CB, |"Ebm7" F2 FF"Ab7" F2 _AB |"Ebm7" F2 FF"Abm7" F2 _E_D | %7
w: fast, and I'm|reck- less it's true, but what|else can you do at the|
w: much, and my|voice is too load when I'm|out in a crowd, so that|
"Dbmaj7" C2 CB,"C7" C3 C |1"Fmaj7" C4 z2 FG :|2"Fmaj7" C4 z2 DE ||"Dm7" F2 DF"G7" A2 FD | %11
w: end of a love af-|fair? So I|||
w: peo- ple are apt to|. * *|stare. Do they|know, do they care, that it's|
"Dm7" F2 F4"G7" DE |"Dm7" F2 DF"G7" A2 FD |"Dm7" F4"G7" z2 EF |"Cmaj7" G2 EG =B2 AG | %15
w: |lone- ly and low as can|be? And the|smile of my face is- n't|
w: on- ly that I'm||||
"Am7" A2 =Bc"D7" d3 d |"Dm7""G7" d8- |"Gm7" d4"C7" z2 FG |"Gm7" A3 A"C7" (3A2 G2 F2 | %19
w: real- ly a smile at|all|* So I|smoke a li- tle too|
w: ||||
"Fmaj7" E4 z2 DC |"Fm7" G3 G"Bb7" (3G2 F2 _E2 |"Ebmaj7" D4 z2 CB, |"Ebm7" F2 FF"Ab7" F2 _AB | %23
w: much, and I|drink a lit- tle too|much, and the|tunes I re- quest are not|
w: ||||
"Ebm7" F2 FF"Ab7" F2 _E_D |"Dbmaj7" C2 CB,"C7" C3 C |"Cm7" c4"F7" z2 BA | %26
w: al- ways the best, but the|ones where the trum- pets|blare! So I|
w: |||
"Bbmaj7" A2 AG (3A2 A2 G2 |"Eb7" B4 z AGF |"Fmaj7" E2 ED E2 ED |"Abdim7" G4 z2 FE | %30
w: go at a mad- den- ing|pace, and I pre-|tend that it's tak- ing her|place. But what|
w: ||||
"Gm7" D2 DC"Cm7" D2 DC |"Gm7" D2 FB"C7" d3 E |"Fmaj7" F8- | F4 z4 |] %34
w: else can I do at the|end of a love af-|fair?||
w: ||||

